ubuntu-mono-dark/status/24/weather-overcast.svg

<?xml version="1.0" encoding="UTF-8" standalone="no"?>
<!-- Created with Inkscape (http://www.inkscape.org/) -->

<svg
   xmlns:dc="http://purl.org/dc/elements/1.1/"
   xmlns:cc="http://creativecommons.org/ns#"
   xmlns:rdf="http://www.w3.org/1999/02/22-rdf-syntax-ns#"
   xmlns:svg="http://www.w3.org/2000/svg"
   xmlns="http://www.w3.org/2000/svg"
   version="1.0"
   width="24"
   height="24"
   id="svg3187">
  <metadata
     id="metadata8">
    <rdf:RDF>
      <cc:Work
         rdf:about="">
        <dc:format>image/svg+xml</dc:format>
        <dc:type
           rdf:resource="http://purl.org/dc/dcmitype/StillImage" />
        <dc:title></dc:title>
      </cc:Work>
    </rdf:RDF>
  </metadata>
  <defs
     id="defs3189" />
  <path
     d="M 12,6 C 10.873696,6 9.9192139,6.5937616 9.40625,7.46875 9.1174033,7.2628041 8.74855,7.15625 8.34375,7.15625 c -0.9200001,1e-7 -1.6874999,0.6176786 -1.6875,1.40625 1e-7,0.1771006 0.056173,0.3434552 0.125,0.5 C 5.7349115,9.463232 5,10.388376 5,11.4375 c 0,1.3309 1.1786846,2.393857 2.6875,2.53125 0.3081974,-1.139343 1.4598135,-1.875001 2.65625,-1.875 0.272458,0 0.517929,0.148348 0.78125,0.21875 0.739399,-0.784372 1.701494,-1.375 2.875,-1.375 1.131647,0 2.146962,0.470581 2.875,1.21875 C 16.954138,11.925082 17,11.691191 17,11.4375 17,10.309116 16.143764,9.34798 14.96875,9 14.97136,8.9511852 15,8.8931797 15,8.84375 15,7.2666071 13.656,6 12,6 z m 2,6 c -1.126304,0 -2.091203,0.607154 -2.604167,1.482142 -0.288846,-0.205946 -0.6577,-0.339285 -1.0625,-0.339285 -0.9199996,0 -1.6666663,0.64 -1.6666664,1.428571 0,0.177101 0.03534,0.343454 0.1041667,0.499999 C 7.7244948,15.472159 7,16.379446 7,17.42857 7,18.853141 8.338,20 10,20 l 6,0 c 1.662,0 3,-1.146859 3,-2.57143 C 19,16.300186 18.15418,15.34798 16.979166,15 16.981776,14.951185 17,14.906572 17,14.857142 17,13.28 15.656,12 14,12 z"
     id="path2397-9"
     style="opacity:0.3;fill:#000000;fill-opacity:1;fill-rule:evenodd;stroke:none;stroke-width:4;marker:none;visibility:visible;display:inline;overflow:visible;enable-background:accumulate" />
  <path
     d="m 12,4.9999996 c -1.126304,0 -2.0807861,0.5937616 -2.59375,1.46875 -0.2888467,-0.2059459 -0.6577,-0.3125 -1.0625,-0.3125 -0.9200001,1e-7 -1.6874999,0.6176786 -1.6875,1.40625 1e-7,0.1771006 0.056173,0.3434552 0.125,0.5 C 5.7349115,8.4632317 5,9.388376 5,10.4375 c 0,1.3309 1.1786846,2.393857 2.6875,2.53125 0.3081974,-1.139343 1.4598135,-1.875001 2.65625,-1.875 0.272458,0 0.517929,0.148348 0.78125,0.21875 0.739399,-0.784373 1.701494,-1.375 2.875,-1.375 1.131647,0 2.146962,0.470581 2.875,1.21875 C 16.954138,10.925082 17,10.69119 17,10.4375 17,9.309116 16.143764,8.3479796 14.96875,7.9999996 14.97136,7.9511848 15,7.8931793 15,7.8437496 15,6.2666067 13.656,4.9999996 12,4.9999996 z M 14,11 c -1.126304,0 -2.091203,0.607154 -2.604167,1.482142 -0.288846,-0.205946 -0.6577,-0.339285 -1.0625,-0.339285 -0.9199996,0 -1.6666663,0.64 -1.6666664,1.428571 0,0.177101 0.03534,0.343454 0.1041667,0.499999 C 7.7244948,14.472159 7,15.379446 7,16.42857 7,17.853141 8.338,19 10,19 l 6,0 c 1.662,0 3,-1.146859 3,-2.57143 C 19,15.300186 18.15418,14.34798 16.979166,14 16.981776,13.951185 17,13.906572 17,13.857142 17,12.28 15.656,11 14,11 z"
     id="path2397"
     style="fill:#dfdbd2;fill-opacity:1;fill-rule:evenodd;stroke:none;stroke-width:4;marker:none;visibility:visible;display:inline;overflow:visible;enable-background:accumulate" />
</svg>

<?xml version="1.0" encoding="UTF-8" standalone="no"?>
<!-- Created with Inkscape (http://www.inkscape.org/) -->
<svg
   xmlns:svg="http://www.w3.org/2000/svg"
   xmlns="http://www.w3.org/2000/svg"
   version="1.0"
   width="24"
   height="24"
   id="svg3187">
  <defs
     id="defs3189" />
  <path
     d="M 12.024667,4.5001413 C 10.877646,4.4891214 9.8257265,5.1202569 9.2450131,5.9613085 C 8.2208995,5.3481856 6.716566,5.8835588 6.3343475,6.8822528 C 6.0219781,7.3539044 6.5723366,7.9758134 5.8238364,8.1619177 C 4.5425712,8.9854487 4.1195154,10.633303 4.8733701,11.857349 C 5.4776969,12.926543 6.8486774,13.580927 8.1997262,13.491938 C 10.246391,13.486315 12.293696,13.50333 14.33995,13.483174 C 16.036583,13.399807 17.489962,12.061095 17.497328,10.571846 C 17.554072,9.3887867 16.672934,8.2608827 15.44578,7.7971342 C 15.482745,6.2830866 14.22979,4.7341012 12.460978,4.5268572 C 12.316493,4.5090186 12.170577,4.5001338 12.024667,4.5001413 z M 14.024748,10.500142 C 12.877727,10.489122 11.825808,11.120258 11.245094,11.961309 C 10.220981,11.348186 8.7166471,11.88356 8.3344286,12.882254 C 8.0220592,13.353905 8.5724177,13.975814 7.8239175,14.161919 C 6.5426522,14.98545 6.1195964,16.633304 6.8734511,17.85735 C 7.477778,18.926544 8.8487585,19.580928 10.199807,19.491939 C 12.246472,19.486316 14.293777,19.503331 16.340031,19.483175 C 18.036664,19.399808 19.490043,18.061096 19.497409,16.571847 C 19.554153,15.388788 18.673015,14.260884 17.445861,13.797135 C 17.482826,12.283087 16.229871,10.734102 14.461059,10.526858 C 14.316574,10.509019 14.170658,10.500134 14.024748,10.500142 z"
     id="path2395"
     style="opacity:0.6;fill:#3a3935;fill-opacity:1;fill-rule:nonzero;stroke:#3a3935;stroke-width:0.99999982;stroke-linecap:round;stroke-linejoin:miter;marker:none;marker-start:none;marker-mid:none;marker-end:none;stroke-miterlimit:4;stroke-dasharray:none;stroke-dashoffset:0;stroke-opacity:1;visibility:visible;display:inline;overflow:visible;enable-background:accumulate" />
  <path
     d="M 12,4.9999992 C 10.873696,4.9999992 9.9192139,5.5937608 9.40625,6.4687492 C 9.1174033,6.2628033 8.74855,6.1562492 8.34375,6.1562492 C 7.4237499,6.1562493 6.6562501,6.7739278 6.65625,7.5624992 C 6.6562501,7.7395998 6.7124231,7.9059544 6.78125,8.0624992 C 5.7349115,8.4632313 5,9.3883752 5,10.437499 C 5,11.7684 6.1786846,12.831357 7.6875,12.96875 C 7.9956974,11.829407 9.1473135,11.093749 10.34375,11.09375 C 10.616207,11.09375 10.861679,11.242098 11.125,11.3125 C 11.864399,10.528127 12.826494,9.9374992 14,9.9374992 C 15.131647,9.9374992 16.146962,10.40808 16.875,11.15625 C 16.954138,10.925081 17,10.69119 17,10.437499 C 17,9.3091154 16.143764,8.3479792 14.96875,7.9999992 C 14.97136,7.9511844 15,7.8931789 15,7.8437492 C 15,6.2666063 13.656,4.9999992 12,4.9999992 z M 14,10.999999 C 12.873696,10.999999 11.908797,11.607154 11.395833,12.482142 C 11.106987,12.276196 10.738133,12.142857 10.333333,12.142857 C 9.4133334,12.142857 8.6666667,12.782857 8.6666666,13.571428 C 8.6666666,13.748529 8.7020064,13.914882 8.7708333,14.071427 C 7.7244948,14.472159 7,15.379446 7,16.42857 C 7,17.853141 8.338,19 10,19 L 16,19 C 17.662,19 19,17.853141 19,16.42857 C 19,15.300186 18.15418,14.34798 16.979166,14 C 16.981776,13.951185 17,13.906572 17,13.857142 C 17,12.28 15.656,10.999999 14,10.999999 z"
     id="path2397"
     style="fill:#eae3d1;fill-opacity:1;fill-rule:evenodd;stroke:none;stroke-width:4;stroke-linecap:butt;stroke-linejoin:miter;marker:none;marker-start:none;marker-mid:none;marker-end:none;stroke-miterlimit:4;stroke-dasharray:none;stroke-dashoffset:0;stroke-opacity:1;visibility:visible;display:inline;overflow:visible;enable-background:accumulate" />
</svg>
